X: 616
T: Düş Ben Gibi Bir Aşka
C: Şerif İçli
O: Turkey
F: http://compmusic.upf.edu/node/140
N: saba--sarki--turkaksagi--dus_ben_gibi--serif_icli
N: makam= saba
N: form= sarki
N: usul= turkaksagi = 5/8
M: 5/8
L: 1/16
K: C _2/4B _3/4d  
Q: 1/4=108
%%MIDI tuningsystem comma53
G3A A4 AG | AG ABc4z2  | c2d2 c2d2 cB | \
w:  ARANAĞME  |   |   | 
BA ABc4z2  | 
w:   | 
c2d2 e2f2 ed | cd dccB BAA2  | A2A2 A2G2 c2 | \
w:   |   |   | 
cB BAA4z2  | 
w:   | 
G3A A4 AG | AG ABc4z2  | c2d2 c2d2 cB | \
w:  ARANAĞME  |   |   | 
BA ABc4z2  | 
w:   | 
c2d2 e2f2 ed | cd dccB BAA2  | A2A2 A2G2 c2 | \
w:   |   |   | 
cB BAA4z2  | 
w:   | 
G3c c4 de | dc Bdcd c2B2  | A3B cddc cB | 
w:  Düş  *  ben   |  gi *  bi  *  bir   |  aş  | 
cB BAA6  | A2c2 B2c_7/8B A^G | F^G ABcd eddc  | 
w:  ka  *  sa *  da  |  kat   |   | 
cddc c3/2B/AB cd | B2 c2cB BAA2  | G3c c4 de | 
w:  ne  *  i *  miş   |  gör   SAZ  |  Düş  *  ben   | 
dc Bdcd c2B2  | A3B cddc cB | cB BAA6  | 
w:  gi *  bi  *  bir   |  aş  |  ka  *  sa *  da  | 
A2c2 B2c_7/8B A^G | F^G ABcd eddc  | \
w:  kat   |   | 
cddc c3/2B/AB cd | 
w:  ne  *  i *  miş   | 
B2 c2cd egf2  | fef_7/8a gfed c2 | d2 e2f4fe  | 
w:  gör   SAZ  |  Vus *  *  *  lat   |  de mi  bek  | 
e3d d4 dc | c2 d2dB/A/ BcB2  | BAGA Bcde fg | 
w:  ler  |  ken  o  fir  |  kat   | 
ed dccB BAA2  | A2A2 BAGc BA | A4cd egf2  | 
w:   |  ne  i miş   |  gör   SAZ  | 
fef_7/8a gfed c2 | d2 e2f4fe  | e3d d4 dc | \
w:  Vus *  *  *  lat   |  de mi  bek  |  ler  | 
c2 d2dB/A/ BcB2  | 
w:  ken  o  fir  | 
BAGA Bcde fg | ed dccB BAA2  | A2A2 BAGc BA | 
w:  kat   |   |  ne  i miş   | 
A4e6  | A3g g^2/4ffe fg | g^2/4f fee4z2  | \
w:  gör   SAZ  |  Yok  *  yok   |  gü *  ze *  lim   | 
=d2ec edde cd | 
w:  düş  | 
cB BAA4z2  | A2c2 B2c_7/8B A^G | F^G ABcd eddc  | 
w:  me  *  sa *  kın   |  öy  |   | 
cddc cBAB cd | B2 c2cd egf2  | fef_7/8a gfed c2 | 
w:  le  *  be *  lâ  |  ya   SAZ  |  Vus *  *  *  lat   | 
d2 e2f4fe  | e3d d4 dc | c2 d2dB/A/ BcB2  | \
w:  de mi  bek  |  ler  |  ken  o  fir  | 
BAGA Bcde fg | 
w:  kat   | 
ed dccB BAA2  | A2A2 BAGc BA | A4cd egf2  | 
w:   |  ne  i miş   |  gör   SAZ  | 
fef_7/8a gfed c2 | d2 e2f4fe  | e3d d4 dc | \
w:  Vus *  *  *  lat   |  de mi  bek  |  ler  | 
c2 d2dB/A/ BcB2  | 
w:  ken  o  fir  | 
BAGA Bcde fg | ed dccB BAA2  | A2A2 BAGc BA | 
w:  kat   |   |  ne  i miş   | 
A4|
w:  gör    | 


